X:98
T:The Green Meadow
M:4/4
K:G
|: (3DEF | "G" G2 GA BGBd | "C" efge "G" dBAG | "A" EAAG ABAG | "C" EAAG "D7"AcBA |
"G" GFGA BGBd | "C" efge "G" dBAG | "Em" EGGF "C" GAGE | "D7" DGGF "G" G2 :|
|: ga | "G" b2bg  a2af | "G" gage d2 Bd | "A" eaag abag | "A" eaag a2 ga |
"G" b2 bg a2af | "G" gage d2 Bd | "C" eggf "G" gage |1"C" dggf "G" g2 :|2"D7"dgga "G"gedB|]
